X: 999
T: Before I Was Married
T: Roime Mo Posad
R:double jig
C:"collected by F.O'Neill"
S:999 O'Neill's Music of Ireland
N:fermata at end of first part
N:"D.C." under the staff at the end
B:O'Neill's 999
Z:Transcribed by Robert Thorpe (thorpe@skep.com)
Z:ABCMUS 1.0
M:6/8
K:D
A/-G/ \
| FGA Afe | dBB B2 A/-G/ | FGA Ade | fdd d2 A/-G/ |
| FGA Afe | dBB B2 A/-G/ | FGA Aag | fdd d2 :|
|: d/-e/ \
| fef afe | dBd d2 d/-e/ | fgf e^de | fdB B2 d/-e/ |
| fef afe | dBc d2 d/-e/ | faf e^de | fdB B2 :|


